img/sprite.svg

<svg xmlns="http://www.w3.org/2000/svg" xmlns:xlink="http://www.w3.org/1999/xlink"><defs>
<linearGradient id="paint0_linear" x1="4.87771" y1="14.5137" x2="86.2261" y2="13.9785" gradientUnits="userSpaceOnUse">
<stop stop-color="#262860"/>
<stop offset="1" stop-color="#3D429B"/>
</linearGradient>
<linearGradient id="paint1_linear" x1="4.87616" y1="14.3096" x2="86.2244" y2="13.7744" gradientUnits="userSpaceOnUse">
<stop stop-color="#262860"/>
<stop offset="1" stop-color="#3D429B"/>
</linearGradient>
<linearGradient id="paint2_linear" x1="4.87478" y1="14.0643" x2="86.2231" y2="13.5291" gradientUnits="userSpaceOnUse">
<stop stop-color="#262860"/>
<stop offset="1" stop-color="#3D429B"/>
</linearGradient>
<linearGradient id="paint3_linear" x1="4.8758" y1="14.2489" x2="86.2242" y2="13.7137" gradientUnits="userSpaceOnUse">
<stop stop-color="#262860"/>
<stop offset="1" stop-color="#3D429B"/>
</linearGradient>
</defs><symbol id="icon-contact"><path d="M21.333 21.274v-3.117l-3.736-1.868-2.962 2.962c2.132 1.103 4.407 1.82 6.698 2.023zm-9.055-3.438l4.112-4.112a1.333 1.333 0 011.54-.25l5.333 2.667c.452.226.737.687.737 1.192v5.334c0 .736-.597 1.333-1.333 1.333C11.264 24 0 12.736 0 1.333 0 .597.597 0 1.333 0h5.334c.505 0 .966.285 1.192.737l2.667 5.333a1.333 1.333 0 01-.25 1.54l-4.112 4.112a23.937 23.937 0 006.114 6.114zM7.711 6.403L5.843 2.667H2.726c.204 2.291.92 4.566 2.023 6.698l2.962-2.962z" fill="#2B2D33"/></symbol><symbol id="icon-doc"><path d="M10 2.4H2.5v19.2h15v-12h-6.25c-.69 0-1.25-.537-1.25-1.2v-6zm6.982 4.8L12.5 2.897V7.2h4.482zM20 7.2v15.6c0 .663-.56 1.2-1.25 1.2H1.25C.56 24 0 23.463 0 22.8V1.2C0 .537.56 0 1.25 0H12.5c.332 0 .65.126.884.351l6.25 6c.234.226.366.53.366.849z" fill="#2B2D33"/></symbol><symbol id="icon-message"><path d="M19.412 2.526H2.588v15.157h3.883c.714 0 1.294.565 1.294 1.263v1.263l3.106-2.274c.224-.164.496-.252.776-.252h7.765V2.526zM5.176 20.21H1.294C.58 20.209 0 19.643 0 18.946V1.263C0 .565.58 0 1.294 0h19.412C21.42 0 22 .565 22 1.263v17.683c0 .697-.58 1.263-1.294 1.263h-8.628l-4.83 3.536c-.854.625-2.072.03-2.072-1.01v-2.526zm0-6.316v-2.526h11.647v2.526H5.176zm0-5.052V6.315h11.647v2.526H5.176z" fill="#2B2D33"/></symbol><symbol id="icon-pay"><path d="M21 8.4c0-.558-.221-1.094-.615-1.489a2.097 2.097 0 00-1.485-.616h-1.175L12.602 0H.004v2.105H11.73l3.339 4.21H8.717L6.702 8.422l5.06 4.758-.557.768C9.652 13.19 4.907 10.737 3.143 9a3.506 3.506 0 01-1.05-2.674H.004a5.666 5.666 0 001.648 4.21c1.743 1.738 6.656 4.327 8.714 5.359a1.98 1.98 0 002.519-.642l.85-1.306a2.11 2.11 0 00-.776-2.547L9.715 8.379H18.9v2.105h-5.249l.61.505c.44.434.736.992.85 1.6h3.79v5.264H5.252v-2.969l-2.1-1.2v4.21A2.1 2.1 0 005.252 20H18.9a2.105 2.105 0 002.1-2.105V8.4z" fill="#2B2D33"/></symbol><symbol id="logo-raif" viewBox="0 0 172 36">
<path d="M36.1824 0H0V36H36.1824V0Z" fill="black"/>
<path d="M35.2193 1.06506H1.07077V35.0414H35.2193V1.06506Z" fill="#FFEE00"/>
<path d="M2.89028 28.1183L7.38632 32.5917L17.77 22.0473L28.5819 32.8047L33.078 28.3313L22.3731 17.6804L24.407 15.6567V11.3964L25.6916 10.3313V13.8461L27.2974 15.2307L32.2216 10.3313L33.8273 11.5029C34.7908 8.09461 29.3313 0.212958 24.8352 4.57982L19.5899 9.79876L20.6603 11.0769L17.9841 13.6331L15.522 11.0769L16.9136 9.90527L11.133 4.3668C6.85108 0.85201 2.35503 6.17745 2.24799 11.5029L3.85372 10.2248L8.6709 15.4437L10.3837 14.0591V10.8638L11.4542 11.7159V15.8698L13.5951 17.9999L2.89028 28.1183Z" fill="black"/>
<path d="M160.894 14.8047H164.427V10.7574H167.745V14.8047H171.278V4.7929H167.745V8.30769H164.427V4.7929H160.894V14.8047ZM139.377 7.66864C140.126 7.1361 141.197 6.81657 142.053 6.81657C142.482 6.81657 143.445 6.92308 143.445 7.77515C143.445 8.62722 142.589 8.62722 142.267 8.62722H140.555V10.8639H142.053C142.589 10.8639 143.552 10.8639 143.552 11.716C143.552 12.0355 143.338 12.6746 142.16 12.6746C140.876 12.6746 140.126 12.355 139.056 11.716L138.093 14.0592C140.019 15.1243 141.839 15.2308 142.589 15.2308C146.656 15.2308 147.192 12.8876 147.192 12.142C147.192 11.0769 146.549 10.0118 145.158 9.69231C146.014 9.26627 146.656 8.4142 146.656 7.34911C146.656 5.00592 144.194 4.47337 142.589 4.47337C141.197 4.47337 139.484 4.89941 138.414 5.43195L139.377 7.66864ZM131.563 3.40828C133.168 3.40828 134.881 2.76923 135.63 1.06509L133.275 0.213018C132.954 1.38462 131.991 1.49112 131.563 1.49112C131.134 1.49112 130.171 1.38462 129.85 0.213018L127.602 1.06509C128.351 2.87574 130.064 3.40828 131.563 3.40828ZM126.103 4.7929V14.9112H129.529L133.061 9.37278V14.9112H136.594V4.7929H133.168L129.636 10.2249V4.7929H126.103ZM102.445 12.6746V7.02959C101.268 7.02959 99.9833 7.88166 99.9833 9.79882C100.09 11.8225 101.268 12.6746 102.445 12.6746ZM105.55 7.02959V12.6746C106.727 12.6746 108.012 11.8225 108.012 9.90533C108.012 7.98817 106.727 7.02959 105.55 7.02959ZM102.231 19.2781V15.0178C100.09 15.0178 96.6648 14.1657 96.6648 9.79882C96.6648 5.43195 100.197 4.57988 102.231 4.57988V0.213018H105.764V4.57988C107.905 4.57988 111.33 5.43195 111.33 9.79882C111.33 14.1657 107.798 15.0178 105.764 15.0178V19.2781H102.231ZM86.4951 12.6746V7.02959C85.3176 7.02959 84.033 7.88166 84.033 9.79882C84.033 11.8225 85.2106 12.6746 86.4951 12.6746ZM89.5995 7.02959V12.6746C90.7771 12.6746 92.0617 11.8225 92.0617 9.90533C91.9546 7.98817 90.7771 7.02959 89.5995 7.02959ZM86.281 19.2781V15.0178C84.1401 15.0178 80.7145 14.1657 80.7145 9.79882C80.7145 5.43195 84.1401 4.57988 86.281 4.57988V0.213018H89.8136V4.57988C91.9546 4.57988 95.3802 5.43195 95.3802 9.79882C95.3802 14.1657 91.8476 15.0178 89.8136 15.0178V19.2781H86.281ZM73.9704 3.40828C75.5762 3.40828 77.289 2.76923 77.9313 1.06509L75.5762 0.213018C75.255 1.38462 74.2916 1.49112 73.8634 1.49112C73.4352 1.49112 72.4718 1.38462 72.1506 0.213018L69.9026 1.06509C70.6519 2.87574 72.3647 3.40828 73.9704 3.40828ZM68.4039 4.7929V14.9112H71.8295L75.3621 9.37278V14.9112H78.8947V4.7929H75.4691L71.9365 10.2249V4.7929H68.4039ZM46.6731 3.19527V6.60355H47.9576C49.7775 6.60355 49.8845 5.53846 49.8845 4.89941C49.8845 4.15385 49.6704 3.19527 47.9576 3.19527H46.6731ZM42.8193 14.8047V0H48.814C52.8819 0 54.0594 2.87574 54.0594 4.89941C54.0594 6.92308 52.8819 9.79882 48.9211 9.79882H46.7801V14.8047H42.8193ZM123.855 4.7929V14.9112H120.323V13.7396C119.68 14.6982 118.503 15.2308 117.325 15.2308C114.328 15.2308 112.294 12.6746 112.294 9.79882C112.294 6.92308 114.328 4.47337 117.325 4.47337C118.503 4.47337 119.68 4.89941 120.43 5.75148V4.7929H123.855ZM118.182 7.56213C116.683 7.56213 115.934 8.62722 115.934 9.79882C115.934 11.0769 116.79 12.0355 118.182 12.0355C119.573 12.0355 120.43 11.0769 120.43 9.79882C120.43 8.52071 119.573 7.56213 118.182 7.56213ZM66.1559 4.7929V14.9112H62.6233V13.7396C61.981 14.6982 60.8035 15.2308 59.6259 15.2308C56.6286 15.2308 54.5946 12.6746 54.5946 9.79882C54.5946 6.92308 56.6286 4.47337 59.6259 4.47337C60.8035 4.47337 61.981 4.89941 62.7303 5.75148V4.7929H66.1559ZM60.4823 7.56213C58.9836 7.56213 58.2343 8.62722 58.2343 9.79882C58.2343 11.0769 59.0907 12.0355 60.4823 12.0355C61.874 12.0355 62.7303 11.0769 62.7303 9.79882C62.7303 8.52071 61.874 7.56213 60.4823 7.56213ZM159.181 10.2249V10.6509H151.688C151.688 12.142 152.437 12.8876 153.936 12.8876C154.685 12.8876 155.22 12.6746 155.649 11.929H159.074C158.539 14.3787 156.291 15.4438 153.936 15.4438C150.617 15.4438 148.155 13.5266 148.155 10.1183C148.155 6.71006 150.403 4.68639 153.722 4.68639C157.147 4.57988 159.181 6.81657 159.181 10.2249ZM151.688 8.52071H155.756C155.542 7.56213 154.685 6.92308 153.722 6.92308C152.758 6.92308 151.902 7.45562 151.688 8.52071Z" fill="black"/>
<path d="M47.422 32.9112H48.0643C48.7065 32.9112 49.2418 32.9112 49.67 32.8047C50.0982 32.6981 50.4193 32.5916 50.7405 32.3786C51.0616 32.1656 51.2757 31.7396 51.3828 31.207C51.4898 30.6745 51.4898 30.3549 51.2757 30.1419C51.0616 29.9289 50.7405 29.7159 50.4193 29.7159C50.0982 29.7159 49.5629 29.6094 48.8136 29.6094H48.1713L47.422 32.9112ZM55.8788 21.0887L55.1295 24.3904H49.1347L48.7065 26.4141H50.9546C52.1321 26.4141 52.9885 26.6271 53.7378 26.9467C54.4872 27.2662 54.9154 27.9052 55.2365 28.5443C55.4506 29.2899 55.5576 30.1419 55.2365 31.207C55.0224 32.1656 54.5942 33.1242 53.9519 33.7632C53.3096 34.5088 52.5603 35.0413 51.7039 35.3609C50.8475 35.6804 49.777 35.8934 48.7065 35.8934H42.7118L45.9233 20.8757H55.8788V21.0887Z" fill="black"/>
<path d="M65.2996 25.6686L62.6234 30.4615H65.8349L65.2996 25.6686ZM60.9107 33.4438L59.3049 36H55.13L64.1221 20.9823H68.4041L70.8662 36H66.6913L66.2631 33.4438H60.9107Z" fill="black"/>
<path d="M84.1398 26.8402L85.3173 21.0887H89.2781L86.0667 36H82.1059L83.4975 29.929H77.8239L76.5394 36H72.5786L75.79 21.0887H79.6438L78.4662 26.8402H84.1398Z" fill="black"/>
<path d="M100.947 21.0887H105.871L98.3781 28.1183L103.195 36H98.0569L94.4173 29.5029L93.0256 36H89.0648L92.2763 21.0887H96.2371L94.8455 27.2662H94.9525L100.947 21.0887Z" fill="black"/>
</symbol><symbol id="logo-visa" viewBox="0 0 87 28">
<path d="M86.6815 27.5507C84.5229 27.5507 82.3482 27.5507 80.1576 27.5507C79.9178 26.3995 79.6619 25.2802 79.454 24.1449C79.3741 23.6812 79.2142 23.4893 78.7025 23.5053C76.0802 23.5373 73.4738 23.5373 70.8514 23.5053C70.4517 23.5053 70.2918 23.6332 70.1799 24.001C69.8121 25.0723 69.4283 26.1436 69.0286 27.215C68.9806 27.3589 68.7887 27.5507 68.6608 27.5507C66.3103 27.5667 63.9438 27.5667 61.5133 27.5667C61.961 26.4954 62.3768 25.488 62.7925 24.4647C65.8306 17.2052 68.8687 9.96179 71.9228 2.70234C72.5784 1.13532 73.5697 0.479736 75.2647 0.479736C77.1515 0.479736 79.0543 0.479736 80.9891 0.479736C81.181 1.35918 81.3728 2.23863 81.5487 3.10209C83.0518 10.2656 84.5389 17.4451 86.0419 24.6086C86.2338 25.52 86.4576 26.4314 86.6655 27.3589C86.6815 27.4228 86.6815 27.4868 86.6815 27.5507ZM78.1429 17.9248C77.4553 14.5989 76.7677 11.3049 76.0802 8.01101C76.0482 8.01101 76.0162 7.99502 76.0002 7.99502C74.801 11.289 73.6177 14.5829 72.4025 17.9248C74.3373 17.9248 76.2081 17.9248 78.1429 17.9248Z" fill="url(#paint0_linear)"/>
<path d="M58.2672 0C59.1306 0.1599 59.9941 0.287819 60.8416 0.495689C61.6251 0.671579 62.3766 0.927418 63.2081 1.16727C62.7923 3.11804 62.3926 5.02085 61.9928 6.87569C60.9055 6.55589 59.8662 6.18812 58.7948 5.94827C57.3238 5.62847 55.8207 5.50055 54.3656 5.91629C53.774 6.07619 53.1664 6.39599 52.7027 6.79574C51.9032 7.4833 51.8872 8.47468 52.6547 9.19423C53.1824 9.68992 53.806 10.1057 54.4456 10.4734C55.8687 11.3369 57.3717 12.0724 58.7629 12.9998C60.3938 14.0872 61.5931 15.5582 61.8329 17.573C62.2806 21.1227 60.9695 23.921 57.9793 25.9037C56.1085 27.151 53.9819 27.7106 51.7752 27.9025C48.6892 28.1903 45.6671 27.8385 42.7089 26.8791C42.517 26.8152 42.3252 26.7352 42.1333 26.6553C42.0693 26.6393 42.0214 26.5913 41.9414 26.5274C42.3571 24.5766 42.7729 22.6258 43.2046 20.6111C43.7003 20.8349 44.18 21.0428 44.6597 21.2507C46.9623 22.1781 49.3448 22.6098 51.8072 22.1461C52.4468 22.0182 53.1024 21.7464 53.6461 21.3786C54.8293 20.5951 54.9413 19.108 53.8699 18.1646C53.1664 17.557 52.3189 17.1093 51.5034 16.6136C50.2402 15.8461 48.913 15.1905 47.7138 14.343C46.1947 13.2397 45.0914 11.7846 44.8676 9.83383C44.5478 6.92366 45.6351 4.55714 47.8737 2.71829C49.8245 1.1193 52.127 0.399749 54.5895 0.11193C54.7334 0.0959396 54.8613 0.04797 54.9892 0.01599C56.0765 6.07586e-08 57.1639 0 58.2672 0Z" fill="url(#paint1_linear)"/>
<path d="M32.8914 0.495374C32.5236 1.37482 32.1718 2.22229 31.82 3.05377C28.4621 11.0647 25.1042 19.0757 21.7623 27.0867C21.6024 27.4705 21.4106 27.5664 21.0268 27.5664C18.9001 27.5504 16.7895 27.5344 14.6628 27.5664C14.2151 27.5664 14.0712 27.4225 13.9592 27.0067C12.1684 20.0031 10.3295 13.0155 8.55463 6.01191C8.23483 4.73272 7.57924 3.85327 6.34802 3.30961C4.38125 2.44615 2.35052 1.83853 0.27183 1.34284C0.17589 1.32685 0.0959398 1.29487 0 1.27888C0.01599 0.463394 0.0159902 0.463394 0.783509 0.463394C4.49318 0.463394 8.20285 0.463394 11.9125 0.463394C13.6714 0.463394 14.9346 1.48675 15.2704 3.22966C16.2138 8.15457 17.1253 13.0955 18.0687 18.0204C18.1166 18.2283 18.1486 18.4521 18.2126 18.7559C18.3085 18.58 18.3725 18.4681 18.4204 18.3562C20.723 12.5358 23.0255 6.69948 25.3121 0.879133C25.44 0.559334 25.5839 0.447404 25.9357 0.463394C28.0944 0.479384 30.237 0.479384 32.3957 0.479384C32.5556 0.479384 32.6995 0.495374 32.8914 0.495374Z" fill="url(#paint2_linear)"/>
<path d="M30.093 27.5667C32.0277 18.5164 33.9465 9.53006 35.8813 0.511719C38.2319 0.511719 40.5504 0.511719 42.9009 0.511719C42.6131 1.88686 42.3253 3.23001 42.0375 4.57317C40.4385 12.0245 38.8555 19.4598 37.2725 26.9112C37.1605 27.4228 36.9846 27.5987 36.441 27.5827C34.5222 27.5508 32.5874 27.5667 30.6686 27.5667C30.4927 27.5667 30.3168 27.5667 30.093 27.5667Z" fill="url(#paint3_linear)"/>

</symbol></svg>

<svg xmlns="http://www.w3.org/2000/svg" xmlns:xlink="http://www.w3.org/1999/xlink"><defs><linearGradient id="paint0_linear" x1="4.878" y1="14.514" x2="86.226" y2="13.979" gradientUnits="userSpaceOnUse"><stop stop-color="#262860"/><stop offset="1" stop-color="#3D429B"/></linearGradient><linearGradient id="paint1_linear" x1="4.876" y1="14.31" x2="86.224" y2="13.774" gradientUnits="userSpaceOnUse"><stop stop-color="#262860"/><stop offset="1" stop-color="#3D429B"/></linearGradient><linearGradient id="paint2_linear" x1="4.875" y1="14.064" x2="86.223" y2="13.529" gradientUnits="userSpaceOnUse"><stop stop-color="#262860"/><stop offset="1" stop-color="#3D429B"/></linearGradient><linearGradient id="paint3_linear" x1="4.876" y1="14.249" x2="86.224" y2="13.714" gradientUnits="userSpaceOnUse"><stop stop-color="#262860"/><stop offset="1" stop-color="#3D429B"/></linearGradient></defs><symbol id="icon-contact"><path d="M21.333 21.274v-3.117l-3.736-1.868-2.962 2.962c2.132 1.103 4.407 1.82 6.698 2.023zm-9.055-3.438l4.112-4.112a1.333 1.333 0 011.54-.25l5.333 2.667c.452.226.737.687.737 1.192v5.334c0 .736-.597 1.333-1.333 1.333C11.264 24 0 12.736 0 1.333 0 .597.597 0 1.333 0h5.334c.505 0 .966.285 1.192.737l2.667 5.333a1.333 1.333 0 01-.25 1.54l-4.112 4.112a23.937 23.937 0 006.114 6.114zM7.711 6.403L5.843 2.667H2.726c.204 2.291.92 4.566 2.023 6.698l2.962-2.962z" fill="#2B2D33"/></symbol><symbol id="icon-doc"><path d="M10 2.4H2.5v19.2h15v-12h-6.25c-.69 0-1.25-.537-1.25-1.2v-6zm6.982 4.8L12.5 2.897V7.2h4.482zM20 7.2v15.6c0 .663-.56 1.2-1.25 1.2H1.25C.56 24 0 23.463 0 22.8V1.2C0 .537.56 0 1.25 0H12.5c.332 0 .65.126.884.351l6.25 6c.234.226.366.53.366.849z" fill="#2B2D33"/></symbol><symbol id="icon-message"><path d="M19.412 2.526H2.588v15.157h3.883c.714 0 1.294.565 1.294 1.263v1.263l3.106-2.274c.224-.164.496-.252.776-.252h7.765V2.526zM5.176 20.21H1.294C.58 20.209 0 19.643 0 18.946V1.263C0 .565.58 0 1.294 0h19.412C21.42 0 22 .565 22 1.263v17.683c0 .697-.58 1.263-1.294 1.263h-8.628l-4.83 3.536c-.854.625-2.072.03-2.072-1.01v-2.526zm0-6.316v-2.526h11.647v2.526H5.176zm0-5.052V6.315h11.647v2.526H5.176z" fill="#2B2D33"/></symbol><symbol id="icon-pay"><path d="M21 8.4c0-.558-.221-1.094-.615-1.489a2.097 2.097 0 00-1.485-.616h-1.175L12.602 0H.004v2.105H11.73l3.339 4.21H8.717L6.702 8.422l5.06 4.758-.557.768C9.652 13.19 4.907 10.737 3.143 9a3.506 3.506 0 01-1.05-2.674H.004a5.666 5.666 0 001.648 4.21c1.743 1.738 6.656 4.327 8.714 5.359a1.98 1.98 0 002.519-.642l.85-1.306a2.11 2.11 0 00-.776-2.547L9.715 8.379H18.9v2.105h-5.249l.61.505c.44.434.736.992.85 1.6h3.79v5.264H5.252v-2.969l-2.1-1.2v4.21A2.1 2.1 0 005.252 20H18.9a2.105 2.105 0 002.1-2.105V8.4z" fill="#2B2D33"/></symbol><symbol id="logo-raif" viewBox="0 0 172 36"><path d="M36.182 0H0v36h36.182V0z" fill="#000"/><path d="M35.22 1.065H1.07v33.976h34.15V1.065z" fill="#FE0"/><path d="M2.89 28.118l4.496 4.474L17.77 22.047l10.812 10.758 4.496-4.474-10.705-10.65 2.034-2.024v-4.26l1.285-1.066v3.515l1.605 1.385 4.925-4.9 1.605 1.172c.964-3.408-4.496-11.29-8.992-6.923L19.59 9.799l1.07 1.278-2.676 2.556-2.462-2.556 1.392-1.172-5.781-5.538C6.851.852 2.355 6.177 2.248 11.503l1.606-1.278 4.817 5.219 1.713-1.385v-3.195l1.07.852v4.154L13.595 18 2.89 28.118zm158.004-13.313h3.533v-4.048h3.318v4.048h3.533V4.793h-3.533v3.515h-3.318V4.793h-3.533v10.012zm-21.517-7.136c.749-.533 1.82-.852 2.676-.852.429 0 1.392.106 1.392.958s-.856.852-1.178.852h-1.712v2.237h1.498c.536 0 1.499 0 1.499.852 0 .32-.214.959-1.392.959-1.284 0-2.034-.32-3.104-.959l-.963 2.343a9.449 9.449 0 004.496 1.172c4.067 0 4.603-2.343 4.603-3.089 0-1.065-.643-2.13-2.034-2.45.856-.426 1.498-1.278 1.498-2.343 0-2.343-2.462-2.876-4.067-2.876-1.392 0-3.105.426-4.175.959l.963 2.237zm-7.814-4.26c1.605 0 3.318-.64 4.067-2.344l-2.355-.852c-.321 1.172-1.284 1.278-1.712 1.278-.429 0-1.392-.106-1.713-1.278l-2.248.852c.749 1.81 2.462 2.343 3.961 2.343zm-5.46 1.384V14.91h3.426l3.532-5.538v5.538h3.533V4.793h-3.426l-3.532 5.432V4.793h-3.533zm-23.658 7.882V7.03c-1.177 0-2.462.852-2.462 2.769.107 2.024 1.285 2.876 2.462 2.876zm3.105-5.645v5.645c1.177 0 2.462-.853 2.462-2.77s-1.285-2.875-2.462-2.875zm-3.319 12.248v-4.26c-2.141 0-5.566-.852-5.566-5.22 0-4.366 3.532-5.218 5.566-5.218V.213h3.533V4.58c2.141 0 5.566.852 5.566 5.219s-3.532 5.219-5.566 5.219v4.26h-3.533zm-15.736-6.603V7.03c-1.177 0-2.462.852-2.462 2.769 0 2.024 1.178 2.876 2.462 2.876zM89.6 7.03v5.645c1.177 0 2.462-.853 2.462-2.77-.107-1.917-1.285-2.875-2.462-2.875zm-3.32 12.248v-4.26c-2.14 0-5.567-.852-5.567-5.22 0-4.366 3.426-5.218 5.567-5.218V.213h3.533V4.58c2.14 0 5.566.852 5.566 5.219s-3.532 5.219-5.566 5.219v4.26H86.28zM73.97 3.408c1.605 0 3.318-.639 3.96-2.343L75.576.213c-.321 1.172-1.284 1.278-1.713 1.278-.428 0-1.391-.106-1.712-1.278l-2.248.852c.749 1.81 2.462 2.343 4.067 2.343zm-5.567 1.385V14.91h3.425l3.533-5.538v5.538h3.533V4.793h-3.426l-3.532 5.432V4.793h-3.533zm-21.73-1.598v3.409h1.284c1.82 0 1.927-1.066 1.927-1.705 0-.745-.215-1.704-1.927-1.704h-1.285zm-3.855 11.61V0h5.995c4.068 0 5.245 2.876 5.245 4.9 0 2.023-1.177 4.899-5.138 4.899h-2.14v5.006h-3.962zm81.036-10.012V14.91h-3.532v-1.17c-.643.958-1.82 1.49-2.998 1.49-2.997 0-5.031-2.555-5.031-5.431s2.034-5.326 5.031-5.326c1.178 0 2.355.426 3.105 1.278v-.958h3.425zm-5.673 2.77c-1.499 0-2.248 1.064-2.248 2.236 0 1.278.856 2.237 2.248 2.237 1.391 0 2.248-.96 2.248-2.237 0-1.278-.857-2.237-2.248-2.237zm-52.026-2.77V14.91h-3.533v-1.17c-.642.958-1.82 1.49-2.997 1.49-2.997 0-5.031-2.555-5.031-5.431s2.034-5.326 5.03-5.326c1.178 0 2.356.426 3.105 1.278v-.958h3.426zm-5.674 2.77c-1.498 0-2.248 1.064-2.248 2.236 0 1.278.857 2.237 2.248 2.237 1.392 0 2.248-.96 2.248-2.237 0-1.278-.856-2.237-2.248-2.237zm98.699 2.662v.426h-7.493c0 1.491.749 2.237 2.248 2.237.749 0 1.284-.213 1.713-.959h3.425c-.535 2.45-2.783 3.515-5.138 3.515-3.319 0-5.781-1.917-5.781-5.326 0-3.408 2.248-5.432 5.567-5.432 3.425-.106 5.459 2.13 5.459 5.539zm-7.493-1.704h4.068c-.214-.959-1.071-1.598-2.034-1.598-.964 0-1.82.533-2.034 1.598zM47.422 32.911h.642c.642 0 1.178 0 1.606-.106.428-.107.75-.213 1.07-.426.322-.213.536-.64.643-1.172.107-.533.107-.852-.107-1.065-.214-.213-.536-.426-.857-.426-.32 0-.856-.107-1.605-.107h-.643l-.749 3.302zm8.457-11.822l-.75 3.301h-5.994l-.428 2.024h2.248c1.177 0 2.034.213 2.783.533.75.32 1.177.958 1.498 1.597.215.746.322 1.598 0 2.663-.214.959-.642 1.917-1.284 2.556-.642.746-1.392 1.278-2.248 1.598a8.83 8.83 0 01-2.998.532h-5.994l3.211-15.017h9.956v.213zm9.421 4.58l-2.677 4.793h3.212l-.535-4.793zm-4.39 7.775L59.306 36H55.13l8.992-15.018h4.282L70.866 36h-4.175l-.428-2.556h-5.352zm23.23-6.604l1.177-5.751h3.961L86.067 36h-3.961l1.392-6.071h-5.674L76.539 36h-3.96l3.211-14.911h3.854l-1.178 5.751h5.674zm16.807-5.751h4.924l-7.493 7.03L103.195 36h-5.138l-3.64-6.497L93.026 36h-3.961l3.211-14.911h3.961l-1.391 6.177h.106l5.995-6.177z" fill="#000"/></symbol><symbol id="logo-visa" viewBox="0 0 87 28"><path d="M86.681 27.55h-6.523c-.24-1.15-.496-2.27-.704-3.405-.08-.464-.24-.656-.751-.64-2.623.032-5.23.032-7.852 0-.4 0-.56.128-.671.496a129.518 129.518 0 01-1.151 3.214c-.048.144-.24.336-.368.336-2.35.016-4.717.016-7.148.016.448-1.072.864-2.079 1.28-3.102 3.038-7.26 6.076-14.503 9.13-21.763C72.578 1.135 73.57.48 75.265.48h5.724c.192.88.384 1.759.56 2.622 1.503 7.164 2.99 14.343 4.493 21.507.192.911.416 1.822.623 2.75a.777.777 0 01.016.192zm-8.538-9.625c-.688-3.326-1.375-6.62-2.063-9.914-.032 0-.064-.016-.08-.016-1.199 3.294-2.382 6.588-3.597 9.93h5.74z" fill="url(#paint0_linear)"/><path d="M58.267 0c.864.16 1.727.288 2.575.496.783.176 1.535.431 2.366.671-.416 1.951-.815 3.854-1.215 5.709-1.087-.32-2.127-.688-3.198-.928-1.471-.32-2.974-.447-4.43-.032-.591.16-1.199.48-1.662.88-.8.687-.816 1.679-.048 2.398.527.496 1.151.912 1.79 1.28 1.424.863 2.927 1.598 4.318 2.526 1.63 1.087 2.83 2.558 3.07 4.573.448 3.55-.864 6.348-3.854 8.33-1.87 1.248-3.997 1.808-6.204 2-3.086.287-6.108-.064-9.066-1.024a8.54 8.54 0 01-.576-.224c-.064-.016-.112-.064-.192-.128.416-1.95.832-3.901 1.264-5.916.495.224.975.432 1.455.64 2.302.927 4.685 1.359 7.147.895a5.2 5.2 0 001.84-.767c1.182-.784 1.294-2.271.223-3.214-.704-.608-1.551-1.056-2.367-1.551-1.263-.768-2.59-1.424-3.79-2.271-1.518-1.103-2.622-2.558-2.845-4.51-.32-2.91.767-5.276 3.006-7.115C49.824 1.12 52.127.4 54.589.112c.144-.016.272-.064.4-.096A222.92 222.92 0 0158.267 0z" fill="url(#paint1_linear)"/><path d="M32.891.495c-.367.88-.72 1.727-1.071 2.559-3.358 8.01-6.716 16.022-10.058 24.033-.16.384-.351.48-.735.48a270.013 270.013 0 00-6.364 0c-.448 0-.592-.145-.704-.56-1.79-7.004-3.63-13.992-5.404-20.995-.32-1.28-.976-2.159-2.207-2.702C4.381 2.446 2.351 1.839.272 1.343.176 1.327.096 1.295 0 1.279.016.463.016.463.784.463h11.128c1.76 0 3.023 1.024 3.358 2.767.944 4.925 1.855 9.865 2.799 14.79.048.208.08.432.144.736.095-.176.16-.288.207-.4C20.723 12.536 23.025 6.7 25.312.88c.128-.32.272-.432.624-.416 2.158.016 4.301.016 6.46.016.16 0 .303.016.495.016z" fill="url(#paint2_linear)"/><path d="M30.093 27.567c1.935-9.05 3.854-18.037 5.788-27.055h7.02a862.86 862.86 0 01-.864 4.061c-1.599 7.451-3.181 14.887-4.764 22.338-.113.512-.288.688-.832.672-1.919-.032-3.854-.016-5.772-.016h-.576z" fill="url(#paint3_linear)"/></symbol></svg>
